!!!OTL: ES IST EIN SCHNITTER DER HEISST TOD
!!!ARE: Europa, Mitteleuropa, Deutschland, Sued - Deutschland
!!!SCT: Z0101
!!!YEM: Copyright 1995, estate of Helmut Schaffrath.
**kern
*ICvox
*Ivox
!! Mixed meters:  3/4; 4/4
*M3/4
*k[b-e-]
*g:
{4g
=1
2g
4b-
=2
2a
4g
=3
2fn
4e-
=4
2d}
{4dd
=5
4.dd
8cc
4b-
=6
4.cc
8b-
4a
=7
2.b-
=8
2r}
{4dd
=9
4.dd
8cc
4dd
=10
4.b-
8cc
4dd
=11
4.cc
8b-
4cc
=12
4.a
8b-}
{4cc
=13
4.b-
8a
4b-
=14
4.g
8a
4b-
=15
4.a
8g
4a
=16
2fn
4d
=17
*M4/4
2r}
{2dd
=18
4cc
8b-
8a
4.a
8g
=19
2g
4r}
==
!!!AGN: Sagen - Lied, Romanze, Tod
!!!ONB: ESAC (Essen Associative Code) Database: ZUCCAL
!!!AMT: irregular
!!!AIN: vox
!!!EED: Helmut Schaffrath
!!!EEV: 1.0
*-
